X: 9806
T: Denis Murphy's
R: slide
M: 12/8
K: Dmajor
dcB|A2 D FED F2 A A2 f|g2 e f2 d e2 d Bcd|A2 D FED F2 A A2 f|a2 f efe d3:|
|:d2 A|d2 e fff gfe f2 f|gfe fed e2 d BBB|d2 e fff gfe f2 g|a2 f efe d3:|

